app/assets/images/heroicons/micro/chevron-double-right.svg

<svg width="16" height="16" viewBox="0 0 16 16" fill="none" xmlns="http://www.w3.org/2000/svg">
<path fill-rule="evenodd" clip-rule="evenodd" d="M12.7803 7.59467C13.0732 7.88756 13.0732 8.36244 12.7803 8.65533L9.53033 11.9053C9.23744 12.1982 8.76256 12.1982 8.46967 11.9053C8.17678 11.6124 8.17678 11.1376 8.46967 10.8447L11.1893 8.125L8.46967 5.40533C8.17678 5.11244 8.17678 4.63756 8.46967 4.34467C8.76256 4.05178 9.23744 4.05178 9.53033 4.34467L12.7803 7.59467ZM4.53033 4.34467L7.78033 7.59467C8.07322 7.88756 8.07322 8.36244 7.78033 8.65533L4.53033 11.9053C4.23744 12.1982 3.76256 12.1982 3.46967 11.9053C3.17678 11.6124 3.17678 11.1376 3.46967 10.8447L6.18934 8.125L3.46967 5.40533C3.17678 5.11244 3.17678 4.63756 3.46967 4.34467C3.76256 4.05178 4.23744 4.05178 4.53033 4.34467Z" fill="black"/>
</svg>

<svg xmlns="http://www.w3.org/2000/svg" viewBox="0 0 16 16" fill="currentColor" aria-hidden="true" data-slot="icon">
  <path fill-rule="evenodd" d="M12.78 7.595a.75.75 0 0 1 0 1.06l-3.25 3.25a.75.75 0 0 1-1.06-1.06l2.72-2.72-2.72-2.72a.75.75 0 0 1 1.06-1.06l3.25 3.25Zm-8.25-3.25 3.25 3.25a.75.75 0 0 1 0 1.06l-3.25 3.25a.75.75 0 0 1-1.06-1.06l2.72-2.72-2.72-2.72a.75.75 0 0 1 1.06-1.06Z" clip-rule="evenodd"/>
</svg>
